SVG-Logos/Frameworks-Languages-IDEs/Process/prplx master/astro-icon.svg

<svg width="63" height="79" viewBox="0 0 63 79" fill="none" xmlns="http://www.w3.org/2000/svg">
<path d="M19.4924 65.9282C15.6165 62.432 14.4851 55.0859 16.0999 49.7638C18.8998 53.1193 22.7793 54.1822 26.7977 54.7822C33.0013 55.7081 39.0937 55.3618 44.8565 52.5637C45.5158 52.2434 46.125 51.8174 46.8454 51.386C47.3861 52.9341 47.5268 54.497 47.338 56.0877C46.8787 59.9617 44.9251 62.9542 41.8177 65.2227C40.5752 66.13 39.2604 66.9411 37.9771 67.7967C34.0346 70.4262 32.9679 73.5095 34.4494 77.9946C34.4846 78.1038 34.5161 78.2131 34.5957 78.4797C32.5828 77.5909 31.1124 76.2965 29.9921 74.5946C28.8088 72.7984 28.2458 70.8114 28.2162 68.6615C28.2014 67.6152 28.2014 66.5597 28.0588 65.5282C27.7107 63.0135 26.5144 61.8876 24.2608 61.8227C21.9479 61.7561 20.1183 63.1672 19.6331 65.3893C19.5961 65.5597 19.5424 65.7282 19.4887 65.9263L19.4924 65.9282Z" fill="#17191E"/>
<path d="M0 51.3932C0 51.3932 10.5979 46.2433 21.2254 46.2433L29.2382 21.5069C29.5381 20.3106 30.4141 19.4977 31.4029 19.4977C32.3918 19.4977 33.2677 20.3106 33.5677 21.5069L41.5804 46.2433C54.1672 46.2433 62.8058 51.3932 62.8058 51.3932C62.8058 51.3932 44.8044 2.47586 44.7692 2.37772C44.2526 0.931458 43.3804 0 42.2045 0H20.6032C19.4273 0 18.5903 0.931458 18.0384 2.37772C17.9995 2.47401 0 51.3932 0 51.3932Z" fill="#17191E"/>
</svg>

<svg xmlns="http://www.w3.org/2000/svg" fill="none" viewBox="0 0 63 79"><path fill="#17191E" d="M19.492 65.928c-3.876-3.496-5.007-10.842-3.392-16.164 2.8 3.355 6.68 4.418 10.698 5.018 6.203.926 12.296.58 18.058-2.218.66-.32 1.269-.747 1.99-1.178.54 1.548.68 3.111.492 4.702-.46 3.874-2.413 6.866-5.52 9.135-1.243.907-2.558 1.718-3.84 2.574-3.943 2.63-5.01 5.713-3.529 10.198.036.109.067.218.147.485-2.013-.89-3.484-2.184-4.604-3.885-1.183-1.797-1.746-3.784-1.776-5.933-.015-1.047-.015-2.102-.157-3.134-.348-2.515-1.545-3.64-3.798-3.705-2.313-.067-4.143 1.344-4.628 3.566-.037.17-.09.34-.144.537l.003.002Z"/><path fill="#17191E" d="M0 51.393s10.598-5.15 21.225-5.15l8.013-24.736c.3-1.196 1.176-2.01 2.165-2.01.989 0 1.865.814 2.165 2.01l8.012 24.736c12.587 0 21.226 5.15 21.226 5.15L44.769 2.378C44.253.93 43.38 0 42.205 0H20.603c-1.176 0-2.013.931-2.565 2.378C18 2.474 0 51.393 0 51.393Z"/></svg>
